ion/basketball-sharp.svg

<svg viewBox="0 0 512 512" xmlns="http://www.w3.org/2000/svg"><g><path d="M256 233.37l34.45-34.45v0c-32.38-37.63-50.17-85.62-50.12-135.25 0-5 .19-10.05.54-15v0C196.54 51.79 154.4 69.08 120.67 98Z"/><path d="M313.14 176.23L391.33 98l-.001 0c-33.25-28.5-74.68-45.73-118.33-49.2 -.41 4.9-.64 9.86-.64 14.87v-.001c-.05 41.14 14.39 80.99 40.78 112.56Z"/><path d="M335.77 198.86v0c31.56 26.39 71.41 40.84 112.56 40.81 5 0 10-.23 14.87-.64l0 0c-3.47-43.67-20.7-85.11-49.2-118.36Z"/><path d="M176.23 313.14h0c-31.57-26.4-71.42-40.85-112.56-40.81q-7.52 0-14.87.64l-.001-.001c3.46 43.66 20.69 85.1 49.2 118.36Z"/><path d="M256 278.63l-34.45 34.45 -.001-.001c32.37 37.62 50.16 85.61 50.12 135.25 0 5-.19 10.05-.54 15v0c44.32-3.13 86.46-20.42 120.2-49.33Z"/><path d="M448.33 271.67h-.001c-49.64.04-97.63-17.75-135.25-50.12L278.629 256l135.37 135.33v0c28.93-33.73 46.24-75.88 49.39-120.2 -5.01.35-10.02.54-15.06.54Z"/><path d="M233.37 256L98 120.67l0-.001c-28.94 33.72-46.26 75.87-49.39 120.2 5-.35 10-.54 15-.54v0c49.63-.05 97.62 17.74 135.25 50.12Z"/><path d="M120.67 414l-.001 0c33.24 28.49 74.67 45.72 118.33 49.2q.63-7.35.64-14.87v0c.03-41.15-14.42-81-40.81-112.56Z"/></g></svg>

<svg xmlns="http://www.w3.org/2000/svg" width="512" height="512" viewBox="0 0 512 512"><path d="M256,233.37l34.45-34.45A207.08,207.08,0,0,1,240.33,63.67c0-5,.19-10.05.54-15A207.09,207.09,0,0,0,120.67,98Z"/><path d="M313.14,176.23,391.33,98A207.07,207.07,0,0,0,273,48.8c-.41,4.9-.64,9.86-.64,14.87A175.25,175.25,0,0,0,313.14,176.23Z"/><path d="M335.77,198.86a175.25,175.25,0,0,0,112.56,40.81c5,0,10-.23,14.87-.64A207.07,207.07,0,0,0,414,120.67Z"/><path d="M176.23,313.14A175.23,175.23,0,0,0,63.67,272.33q-7.52,0-14.87.64A207.07,207.07,0,0,0,98,391.33Z"/><path d="M256,278.63l-34.45,34.45a207.08,207.08,0,0,1,50.12,135.25c0,5-.19,10.05-.54,15A207.06,207.06,0,0,0,391.33,414Z"/><path d="M448.33,271.67a207.08,207.08,0,0,1-135.25-50.12L278.63,256,414,391.33a207.09,207.09,0,0,0,49.39-120.2C458.38,271.48,453.37,271.67,448.33,271.67Z"/><path d="M233.37,256,98,120.67a207.06,207.06,0,0,0-49.39,120.2c5-.35,10-.54,15-.54a207.08,207.08,0,0,1,135.25,50.12Z"/><path d="M120.67,414A207.07,207.07,0,0,0,239,463.2q.63-7.35.64-14.87a175.23,175.23,0,0,0-40.81-112.56Z"/></svg>
